T: John MacColl's March To Kilbowie Cottage
M: 4/4
L: 1/8
K: Amix
c4 cBAc | e2 Af fece | ABcf feAB | cfec cBAB|c4 cBAc | e2 Af fece | f2 Af ecBc | A4 A2 :|a3 f ecBc | Aceg fAeA | f<ac<e A2 AB |[1 cfec B2 fg |a3 f ecBc | Aceg fAeA | f<ac<e eABc | A4 A2:|c4 cBAc | e2 Af fece | f2 Af ecBc | A4 A2 ||A2 Bc A2 ce | aefa efce | A2 Bc A2 ce | f2 ec B2 cB |A2 Bc A2 ce | aefa efce | f2 cf ecBc | A4 A2 :|ceBc AceA | ceea fecd | e2 Bc A2 AB |[1 cfec B2 ed |ceBc AceA | ceea fecd | efcf ecAB | A4 A2 :|c4 cBAc | e2 Af fece | f2 Af ecBc | A4 A2 |]
